X:18
T:Stingo
T:The oil of barley
B:Barlow.99
Z:Tom Novelli
M:6/8
L:1/8
K:Gdor
G2G d2B|cA2 F2F|G2G d2B|G3 B3:|\
|:B2B B2A/B/|c2c c2c|d2d g2f|d3 f3|B2B B2A/B/|c2c c>d_e|d>cB cA2|G3 B3:|
